24x24/devices/camera-video.svg

<svg xmlns="http://www.w3.org/2000/svg" width="24" height="24" version="1"><rect style="opacity:.2" width="16" height="20" x="5" y="2.5" rx="3" ry="3"/><rect style="fill:#4f4f4f" width="16" height="20" x="5" y="2" rx="3" ry="3"/><circle style="opacity:.2" cx="-5.5" cy="-18" r="1" transform="matrix(0 -1 -1 0 0 0)"/><circle style="fill:#ff4d4d" cx="-5" cy="-18" r="1" transform="matrix(0 -1 -1 0 0 0)"/><circle style="opacity:.4" cx="-11" cy="-13" r="4" transform="matrix(0 -1 -1 0 0 0)"/><circle style="opacity:.2" cx="-11.5" cy="13" r="3" transform="rotate(-90)"/><circle style="fill:#007095" cx="-11" cy="13" r="3" transform="rotate(-90)"/><circle style="opacity:.2" cx="-11.5" cy="-13" r="2" transform="matrix(0 -1 -1 0 0 0)"/><circle style="fill:#49acdc" cx="-11" cy="-13" r="2" transform="matrix(0 -1 -1 0 0 0)"/><rect style="opacity:.2" width="2" height="12" x="3" y="6.5" rx=".5" ry=".462"/><rect style="fill:#17191e" width="2" height="12" x="3" y="6" rx=".5" ry=".462"/><circle style="opacity:.5" cx="7.5" cy="18.5" r=".5"/><circle style="opacity:.5" cx="9.5" cy="18.5" r=".5"/><circle style="opacity:.5" cx="11.5" cy="18.5" r=".5"/><circle style="opacity:.5" cx="13.5" cy="18.5" r=".5"/><circle style="opacity:.5" cx="8.5" cy="20" r=".5"/><circle style="opacity:.5" cx="10.5" cy="20" r=".5"/><circle style="opacity:.5" cx="12.5" cy="20" r=".5"/><path style="opacity:.1;fill:#f4f4f7" d="M8 2C6.338 2 5 3.338 5 5v.5c0-1.662 1.338-3 3-3h10c1.662 0 3 1.338 3 3V5c0-1.662-1.338-3-3-3z"/><path style="fill:#f4f4f7;opacity:.2" d="M18 4a1 1 0 0 0-1 1 1 1 0 0 0 .033.25A1 1 0 0 1 18 4.5a1 1 0 0 1 .967.75A1 1 0 0 0 19 5a1 1 0 0 0-1-1z"/><path style="fill:#f4f4f7;opacity:.1" d="M13 8a3 3 0 0 0-3 3 3 3 0 0 0 .014.256A3 3 0 0 1 13 8.5a3 3 0 0 1 2.986 2.744A3 3 0 0 0 16 11a3 3 0 0 0-3-3z"/><path style="fill:#f4f4f7;opacity:.2" d="M13 9a2 2 0 0 0-2 2 2 2 0 0 0 .018.256A2 2 0 0 1 13 9.5a2 2 0 0 1 1.982 1.744A2 2 0 0 0 15 11a2 2 0 0 0-2-2z"/><path style="opacity:.1;fill:#f4f4f7" d="M3.5 6c-.277 0-.5.205-.5.46v.5c0-.255.223-.46.5-.46h1c.277 0 .5.205.5.46v-.5C5 6.206 4.777 6 4.5 6h-1z"/></svg>

<svg xmlns="http://www.w3.org/2000/svg" width="24" height="24" version="1">
 <rect style="opacity:0.2" width="16" height="20" x="5" y="2.5" rx="3" ry="3"/>
 <rect style="fill:#4f4f4f" width="16" height="20" x="5" y="2" rx="3" ry="3"/>
 <circle style="opacity:0.2" cx="-5.5" cy="-18" r="1" transform="matrix(0,-1,-1,0,0,0)"/>
 <circle style="fill:#ff4d4d" cx="-5" cy="-18" r="1" transform="matrix(0,-1,-1,0,0,0)"/>
 <circle style="opacity:0.4" cx="-11" cy="-13" r="4" transform="matrix(0,-1,-1,0,0,0)"/>
 <circle style="opacity:0.2" cx="-11.5" cy="13" r="3" transform="rotate(-90)"/>
 <circle style="fill:#007095" cx="-11" cy="13" r="3" transform="rotate(-90)"/>
 <circle style="opacity:0.2" cx="-11.5" cy="-13" r="2" transform="matrix(0,-1,-1,0,0,0)"/>
 <circle style="fill:#49acdc" cx="-11" cy="-13" r="2" transform="matrix(0,-1,-1,0,0,0)"/>
 <rect style="opacity:0.2" width="2" height="12" x="3" y="6.5" rx=".5" ry=".462"/>
 <rect style="fill:#17191e" width="2" height="12" x="3" y="6" rx=".5" ry=".462"/>
 <circle style="opacity:0.5" cx="7.5" cy="18.5" r=".5"/>
 <circle style="opacity:0.5" cx="9.5" cy="18.5" r=".5"/>
 <circle style="opacity:0.5" cx="11.5" cy="18.5" r=".5"/>
 <circle style="opacity:0.5" cx="13.5" cy="18.5" r=".5"/>
 <circle style="opacity:0.5" cx="8.5" cy="20" r=".5"/>
 <circle style="opacity:0.5" cx="10.5" cy="20" r=".5"/>
 <circle style="opacity:0.5" cx="12.5" cy="20" r=".5"/>
 <path style="opacity:0.1;fill:#f4f4f7" d="M 8,2 C 6.338,2 5,3.338 5,5 v 0.5 c 0,-1.662 1.338,-3 3,-3 h 10 c 1.662,0 3,1.338 3,3 V 5 C 21,3.338 19.662,2 18,2 Z"/>
 <path style="fill:#f4f4f7;opacity:0.2" d="M 18 4 A 1 1 0 0 0 17 5 A 1 1 0 0 0 17.033203 5.25 A 1 1 0 0 1 18 4.5 A 1 1 0 0 1 18.966797 5.25 A 1 1 0 0 0 19 5 A 1 1 0 0 0 18 4 z"/>
 <path style="fill:#f4f4f7;opacity:0.1" d="M 13 8 A 3 3 0 0 0 10 11 A 3 3 0 0 0 10.013672 11.255859 A 3 3 0 0 1 13 8.5 A 3 3 0 0 1 15.986328 11.244141 A 3 3 0 0 0 16 11 A 3 3 0 0 0 13 8 z"/>
 <path style="fill:#f4f4f7;opacity:0.2" d="M 13 9 A 2 2 0 0 0 11 11 A 2 2 0 0 0 11.017578 11.255859 A 2 2 0 0 1 13 9.5 A 2 2 0 0 1 14.982422 11.244141 A 2 2 0 0 0 15 11 A 2 2 0 0 0 13 9 z"/>
 <path style="opacity:0.1;fill:#f4f4f7" d="M 3.5 6 C 3.223 6 3 6.2052452 3 6.4609375 L 3 6.9609375 C 3 6.7052452 3.223 6.5 3.5 6.5 L 4.5 6.5 C 4.777 6.5 5 6.7052452 5 6.9609375 L 5 6.4609375 C 5 6.2052452 4.777 6 4.5 6 L 3.5 6 z"/>
</svg>
